flaticon/essential/home.svg

<svg xmlns="http://www.w3.org/2000/svg" width="32" height="32" viewBox="0 0 24 24">
    <path d="M 23.792969 10.953125 L 20.222656 7.636719 L 20.222656 2.207031 L 16.113281 2.207031 L 16.113281 3.820312 L 12 0 L 0.207031 10.953125 C 0.0390625 11.105469 0.03125 11.367188 0.183594 11.53125 C 0.339844 11.699219 0.597656 11.707031 0.765625 11.554688 L 2.132812 10.285156 L 2.132812 24 L 21.867188 24 L 21.867188 10.285156 L 23.234375 11.554688 C 23.3125 11.628906 23.414062 11.664062 23.515625 11.664062 C 23.625 11.664062 23.734375 11.621094 23.816406 11.53125 C 23.96875 11.367188 23.960938 11.105469 23.792969 10.953125 Z M 16.933594 3.027344 L 19.402344 3.027344 L 19.402344 6.871094 L 16.933594 4.582031 Z M 9.53125 23.175781 L 9.53125 14.515625 C 9.53125 14.304688 9.707031 14.132812 9.917969 14.132812 L 14.082031 14.132812 C 14.292969 14.132812 14.46875 14.304688 14.46875 14.515625 L 14.46875 23.175781 Z M 21.046875 23.175781 L 15.289062 23.175781 L 15.289062 14.515625 C 15.289062 13.851562 14.746094 13.308594 14.082031 13.308594 L 9.917969 13.308594 C 9.25 13.308594 8.710938 13.851562 8.710938 14.515625 L 8.710938 23.175781 L 2.953125 23.175781 L 2.953125 9.523438 L 12 1.121094 L 17.871094 6.574219 L 20.222656 8.757812 L 21.046875 9.523438 Z M 21.046875 23.175781"/>
</svg>

<svg xmlns="http://www.w3.org/2000/svg" width="32" height="32" viewBox="0 0 24 24">
    <path d="M23.793 10.953l-3.57-3.316v-5.43h-4.11V3.82L12 0 .207 10.953a.408.408 0 0 0-.023.578.413.413 0 0 0 .582.024l1.367-1.27V24h19.734V10.285l1.367 1.27c.078.074.18.11.282.11.109 0 .218-.044.3-.134a.408.408 0 0 0-.023-.578zm-6.86-7.926h2.47v3.844l-2.47-2.289zM9.532 23.176v-8.66c0-.211.176-.383.387-.383h4.164c.211 0 .387.172.387.383v8.66zm11.516 0h-5.758v-8.66a1.21 1.21 0 0 0-1.207-1.207H9.918c-.668 0-1.207.543-1.207 1.207v8.66H2.953V9.523L12 1.121l5.871 5.453 2.352 2.184.824.765zm0 0"/>
</svg>
